src/img/projects/python.svg

<?xml version="1.0" encoding="UTF-8"?>
<svg width="90px" height="90px" viewBox="0 0 90 90" version="1.1" xmlns="http://www.w3.org/2000/svg" xmlns:xlink="http://www.w3.org/1999/xlink">
    <!-- Generator: Sketch 41.2 (35397) - http://www.bohemiancoding.com/sketch -->
    <title>community/card/logo/pyton</title>
    <desc>Created with Sketch.</desc>
    <defs></defs>
    <g id="Symbols" stroke="none" stroke-width="1" fill="none" fill-rule="evenodd">
        <g id="community/card/logo/pyton">
            <path d="M46.2965155,22.0520206 C34.5542819,22.0520214 35.2875427,27.1271118 35.2875427,27.1271118 L35.300633,32.3848542 L46.5059609,32.3848542 L46.5059609,33.9634816 L30.8499186,33.9634816 C30.8499186,33.9634816 23.3360656,33.1141953 23.3360656,44.9225475 C23.3360647,56.7308973 29.8943241,56.3121482 29.8943241,56.3121482 L33.8083347,56.3121482 L33.8083347,50.8326152 C33.8083347,50.8326152 33.5973595,44.2963152 40.2618705,44.2963152 L51.375566,44.2963152 C51.375566,44.2963152 57.6196565,44.3969132 57.6196565,38.2818754 L57.6196565,28.1708324 C57.6196565,28.1708316 58.5676817,22.0520206 46.2965155,22.0520206 Z M40.1178768,25.587624 C41.2327248,25.5876232 42.1337886,26.4856708 42.1337886,27.5967861 C42.1337894,28.7079014 41.2327248,29.6059482 40.1178768,29.6059482 C39.0030288,29.605949 38.101965,28.7079014 38.101965,27.5967861 C38.1019641,26.4856708 39.0030288,25.587624 40.1178768,25.587624 Z" id="python" fill="#FFFFFF"></path>
            <path d="M46.8956217,68.4833235 C58.6378586,68.4833235 57.9045946,63.4082323 57.9045946,63.4082323 L57.8915042,58.1504899 L46.6861763,58.1504899 L46.6861763,56.5718625 L62.3422186,56.5718625 C62.3422186,56.5718625 69.8560716,57.4211463 69.8560716,45.6127924 C69.8560758,33.8044439 63.2978131,34.223193 63.2978131,34.223193 L59.3838026,34.223193 L59.3838026,39.7027247 C59.3838026,39.7027247 59.5947811,46.2390247 52.9302667,46.2390247 L41.8165703,46.2390247 C41.8165703,46.2390247 35.5724799,46.1384268 35.5724799,52.2534687 L35.5724799,62.3645117 C35.5724799,62.3645117 34.6244547,68.4833235 46.8956217,68.4833235 Z M53.5741563,64.4803778 C52.4593079,64.4803778 51.5582445,63.5823314 51.5582445,62.4712157 C51.5582445,61.3601 52.4593079,60.4620536 53.5741563,60.4620536 C54.6890048,60.4620536 55.5900681,61.3601 55.5900681,62.4712157 C55.5900723,63.5823314 54.6890048,64.4803778 53.5741563,64.4803778 Z" id="path8620-3" fill="#FFC168"></path>
        </g>
    </g>
</svg>

<svg width="90" height="90" viewBox="0 0 90 90" xmlns="http://www.w3.org/2000/svg"><title>community/card/logo/pyton</title><g fill="none" fill-rule="evenodd"><path d="M46.297 22.052c-11.743 0-11.01 5.075-11.01 5.075l.014 5.258h11.205v1.578H30.85s-7.514-.849-7.514 10.96c0 11.808 6.558 11.39 6.558 11.39h3.914v-5.48s-.21-6.537 6.454-6.537h11.114s6.244.1 6.244-6.014V28.17s.948-6.119-11.323-6.119zm-6.18 3.536a2.01 2.01 0 0 1 2.017 2.009 2.01 2.01 0 0 1-2.016 2.009 2.01 2.01 0 0 1-2.016-2.01 2.01 2.01 0 0 1 2.016-2.008z" fill="#FFF"/><path d="M46.896 68.483c11.742 0 11.009-5.075 11.009-5.075l-.013-5.258H46.686v-1.578h15.656s7.514.85 7.514-10.96c0-11.808-6.558-11.389-6.558-11.389h-3.914v5.48s.21 6.536-6.454 6.536H41.817s-6.245-.1-6.245 6.014v10.112s-.948 6.118 11.324 6.118zm6.678-4.003a2.01 2.01 0 0 1-2.016-2.009 2.01 2.01 0 0 1 2.016-2.009 2.01 2.01 0 0 1 2.016 2.01 2.01 2.01 0 0 1-2.016 2.008z" fill="#FFC168"/></g></svg>
